src/assets/duotone/Path2.svg

<svg width="24" height="24" viewBox="0 0 24 24"  xmlns="http://www.w3.org/2000/svg">
<path d="M14.1501 22.0001H9.87008C8.34008 22.0001 7.20008 20.7601 7.49008 19.4301L8.19008 16.3501H15.8301L16.5301 19.4301C16.8501 20.8401 15.7801 22.0001 14.1501 22.0001Z" />
<path opacity="0.4" d="M18.7701 13.7402L15.8301 16.3502H8.19013L5.25013 13.7402C3.54013 12.3402 3.54013 11.2602 4.84013 9.61018L10.0301 3.04018C10.3901 2.59018 10.8101 2.28018 11.2601 2.12018C11.7501 1.95018 12.2701 1.95018 12.7601 2.12018C13.2101 2.28018 13.6301 2.59018 13.9901 3.04018L19.1801 9.61018C20.4801 11.2602 20.4201 12.2802 18.7701 13.7402Z" />
<path d="M12.7598 2.12018V6.97018C12.7598 7.38018 12.4198 7.72018 12.0098 7.72018C11.5998 7.72018 11.2598 7.38018 11.2598 6.97018V2.12018C11.7498 1.95018 12.2698 1.95018 12.7598 2.12018Z" />
</svg>

<?xml version="1.0" encoding="UTF-8"?>
<svg width="24" height="24" viewBox="0 0 24 24" xmlns="http://www.w3.org/2000/svg">
 <path d="m14.15 22h-4.28c-1.53 0-2.67-1.24-2.38-2.57l0.7-3.08h7.64l0.7 3.08c0.32 1.41-0.75 2.57-2.38 2.57z"/>
 <path d="m18.77 13.74-2.94 2.61h-7.64l-2.94-2.61c-1.71-1.4-1.71-2.48-0.41-4.13l5.19-6.57c0.36-0.45 0.78-0.76 1.23-0.92 0.49-0.17 1.01-0.17 1.5 0 0.45 0.16 0.87 0.47 1.23 0.92l5.19 6.57c1.3 1.65 1.24 2.67-0.41 4.13z" opacity=".4"/>
 <path d="m12.76 2.1202v4.85c0 0.41-0.34 0.75-0.75 0.75s-0.75-0.34-0.75-0.75v-4.85c0.49-0.17 1.01-0.17 1.5 0z"/>
</svg>
